dist/images/svg/briefcase.svg

<svg width="25" height="25" viewBox="0 0 25 25" fill="none" xmlns="http://www.w3.org/2000/svg">
<path d="M20.833 7.29163H4.16634C3.01575 7.29163 2.08301 8.22437 2.08301 9.37496V19.7916C2.08301 20.9422 3.01575 21.875 4.16634 21.875H20.833C21.9836 21.875 22.9163 20.9422 22.9163 19.7916V9.37496C22.9163 8.22437 21.9836 7.29163 20.833 7.29163Z" stroke="#FF862F" stroke-width="2" stroke-linecap="round" stroke-linejoin="round"/>
<path d="M16.6663 21.875V5.20833C16.6663 4.6558 16.4468 4.12589 16.0561 3.73519C15.6654 3.34449 15.1355 3.125 14.583 3.125H10.4163C9.86381 3.125 9.3339 3.34449 8.9432 3.73519C8.5525 4.12589 8.33301 4.6558 8.33301 5.20833V21.875" stroke="#FF862F" stroke-width="2" stroke-linecap="round" stroke-linejoin="round"/>
</svg>

<svg width="25" height="25" fill="none" xmlns="http://www.w3.org/2000/svg"><path d="M20.833 7.292H4.166c-1.15 0-2.083.932-2.083 2.083v10.417c0 1.15.933 2.083 2.083 2.083h16.667c1.15 0 2.083-.933 2.083-2.083V9.375c0-1.15-.932-2.083-2.083-2.083Z" stroke="#FF862F" stroke-width="2" stroke-linecap="round" stroke-linejoin="round"/><path d="M16.666 21.875V5.208a2.083 2.083 0 0 0-2.083-2.083h-4.167a2.083 2.083 0 0 0-2.083 2.083v16.667" stroke="#FF862F" stroke-width="2" stroke-linecap="round" stroke-linejoin="round"/></svg>
